dist/img/header/basket.svg

<svg width="29" height="37" viewBox="0 0 29 37" fill="none" xmlns="http://www.w3.org/2000/svg">
<path fill-rule="evenodd" clip-rule="evenodd" d="M28.5938 31.2832L26.6193 8.5895C26.577 8.08567 26.1609 7.7042 25.6743 7.7042H21.6125C21.5561 3.91832 18.5238 0.859375 14.8004 0.859375C11.0771 0.859375 8.04477 3.91832 7.98836 7.7042H3.92651C3.43288 7.7042 3.02387 8.08567 2.98156 8.5895L1.00705 31.2832C1.00705 31.2976 1.00529 31.312 1.00353 31.3264C1.00176 31.3408 1 31.3552 1 31.3696C1 33.9535 3.32005 36.0552 6.17604 36.0552H23.4248C26.2808 36.0552 28.6008 33.9535 28.6008 31.3696C28.6008 31.3408 28.6008 31.312 28.5938 31.2832ZM14.8005 2.80247C17.4732 2.80247 19.6522 4.99052 19.7086 7.70399H9.89246C9.94887 4.99052 12.1279 2.80247 14.8005 2.80247ZM6.17622 34.1117H23.425C25.2091 34.1117 26.6688 32.9025 26.697 31.4126L24.8001 9.65455H21.6127V12.6055C21.6127 13.1453 21.1895 13.5772 20.6607 13.5772C20.1318 13.5772 19.7087 13.1453 19.7087 12.6055V9.65455H9.88548V12.6055C9.88548 13.1453 9.46237 13.5772 8.93348 13.5772C8.4046 13.5772 7.98149 13.1453 7.98149 12.6055V9.65455H4.79406L2.90417 31.4126C2.93238 32.9025 4.38506 34.1117 6.17622 34.1117Z" fill="#333333"/>
<path d="M26.6193 8.5895L26.4698 8.60205L26.4698 8.6025L26.6193 8.5895ZM28.5938 31.2832L28.4443 31.2962L28.4453 31.3077L28.4481 31.3189L28.5938 31.2832ZM21.6125 7.7042L21.4625 7.70644L21.4647 7.8542H21.6125V7.7042ZM7.98836 7.7042V7.8542H8.13614L8.13834 7.70644L7.98836 7.7042ZM2.98156 8.5895L3.131 8.6025L3.13104 8.60205L2.98156 8.5895ZM1.00705 31.2832L0.857052 31.2702V31.2832H1.00705ZM1.00353 31.3264L0.854638 31.3082H0.854638L1.00353 31.3264ZM19.7086 7.70399V7.85399H19.8618L19.8586 7.70087L19.7086 7.70399ZM9.89246 7.70399L9.74249 7.70087L9.73931 7.85399H9.89246V7.70399ZM26.697 31.4126L26.847 31.4155L26.8471 31.4075L26.8465 31.3996L26.697 31.4126ZM24.8001 9.65455L24.9495 9.64152L24.9376 9.50455H24.8001V9.65455ZM21.6127 9.65455V9.50455H21.4627V9.65455H21.6127ZM19.7087 9.65455H19.8587V9.50455H19.7087V9.65455ZM9.88548 9.65455V9.50455H9.73548V9.65455H9.88548ZM7.98149 9.65455H8.13149V9.50455H7.98149V9.65455ZM4.79406 9.65455V9.50455H4.65653L4.64463 9.64157L4.79406 9.65455ZM2.90417 31.4126L2.75474 31.3997L2.75405 31.4076L2.7542 31.4155L2.90417 31.4126ZM26.4698 8.6025L28.4443 31.2962L28.7432 31.2702L26.7687 8.5765L26.4698 8.6025ZM25.6743 7.8542C26.0813 7.8542 26.4339 8.17429 26.4698 8.60205L26.7687 8.57694C26.72 7.99706 26.2405 7.5542 25.6743 7.5542V7.8542ZM21.6125 7.8542H25.6743V7.5542H21.6125V7.8542ZM14.8004 1.00938C18.4389 1.00938 21.4073 3.99956 21.4625 7.70644L21.7625 7.70197C21.7049 3.83707 18.6087 0.709375 14.8004 0.709375V1.00938ZM8.13834 7.70644C8.19358 3.99956 11.1619 1.00938 14.8004 1.00938V0.709375C10.9922 0.709375 7.89596 3.83707 7.83837 7.70197L8.13834 7.70644ZM3.92651 7.8542H7.98836V7.5542H3.92651V7.8542ZM3.13104 8.60205C3.16702 8.17358 3.51319 7.8542 3.92651 7.8542V7.5542C3.35257 7.5542 2.88073 7.99777 2.83209 8.57694L3.13104 8.60205ZM1.15649 31.2962L3.131 8.6025L2.83213 8.5765L0.857616 31.2702L1.15649 31.2962ZM1.15241 31.3447C1.15398 31.3318 1.15705 31.3083 1.15705 31.2832H0.857052C0.857052 31.2869 0.856595 31.2922 0.854638 31.3082L1.15241 31.3447ZM1.15 31.3696C1.15 31.3659 1.15046 31.3606 1.15241 31.3447L0.854638 31.3082C0.853069 31.321 0.85 31.3445 0.85 31.3696H1.15ZM6.17604 35.9052C3.38852 35.9052 1.15 33.857 1.15 31.3696H0.85C0.85 34.05 3.25157 36.2052 6.17604 36.2052V35.9052ZM23.4248 35.9052H6.17604V36.2052H23.4248V35.9052ZM28.4508 31.3696C28.4508 33.857 26.2123 35.9052 23.4248 35.9052V36.2052C26.3493 36.2052 28.7508 34.05 28.7508 31.3696H28.4508ZM28.4481 31.3189C28.4501 31.3273 28.4508 31.3381 28.4508 31.3696H28.7508C28.7508 31.3435 28.7515 31.2967 28.7395 31.2476L28.4481 31.3189ZM19.8586 7.70087C19.8005 4.90877 17.5578 2.65247 14.8005 2.65247V2.95248C17.3886 2.95248 19.5039 5.07228 19.5587 7.70711L19.8586 7.70087ZM9.89246 7.85399H19.7086V7.55399H9.89246V7.85399ZM14.8005 2.65247C12.0433 2.65247 9.80054 4.90877 9.74249 7.70087L10.0424 7.70711C10.0972 5.07228 12.2125 2.95248 14.8005 2.95248V2.65247ZM23.425 33.9617H6.17622V34.2617H23.425V33.9617ZM26.547 31.4098C26.5208 32.7951 25.1523 33.9617 23.425 33.9617V34.2617C25.2658 34.2617 26.8168 33.01 26.847 31.4155L26.547 31.4098ZM24.6506 9.66758L26.5476 31.4257L26.8465 31.3996L24.9495 9.64152L24.6506 9.66758ZM21.6127 9.80455H24.8001V9.50455H21.6127V9.80455ZM21.7627 12.6055V9.65455H21.4627V12.6055H21.7627ZM20.6607 13.7272C21.2753 13.7272 21.7627 13.2253 21.7627 12.6055H21.4627C21.4627 13.0654 21.1038 13.4272 20.6607 13.4272V13.7272ZM19.5587 12.6055C19.5587 13.2253 20.0461 13.7272 20.6607 13.7272V13.4272C20.2175 13.4272 19.8587 13.0654 19.8587 12.6055H19.5587ZM19.5587 9.65455V12.6055H19.8587V9.65455H19.5587ZM9.88548 9.80455H19.7087V9.50455H9.88548V9.80455ZM10.0355 12.6055V9.65455H9.73548V12.6055H10.0355ZM8.93348 13.7272C9.54809 13.7272 10.0355 13.2253 10.0355 12.6055H9.73548C9.73548 13.0654 9.37665 13.4272 8.93348 13.4272V13.7272ZM7.83149 12.6055C7.83149 13.2253 8.31888 13.7272 8.93348 13.7272V13.4272C8.49032 13.4272 8.13149 13.0654 8.13149 12.6055H7.83149ZM7.83149 9.65455V12.6055H8.13149V9.65455H7.83149ZM4.79406 9.80455H7.98149V9.50455H4.79406V9.80455ZM3.05361 31.4256L4.9435 9.66753L4.64463 9.64157L2.75474 31.3997L3.05361 31.4256ZM6.17622 33.9617C4.44203 33.9617 3.08038 32.7953 3.05415 31.4098L2.7542 31.4155C2.78439 33.0098 4.32809 34.2617 6.17622 34.2617V33.9617Z" fill="#333333"/>
</svg>

<svg width="29" height="37" fill="none" xmlns="http://www.w3.org/2000/svg"><path fill-rule="evenodd" clip-rule="evenodd" d="M28.594 31.283L26.619 8.59a.958.958 0 00-.945-.885h-4.061C21.556 3.918 18.523.86 14.8.86S8.045 3.92 7.988 7.704H3.927a.953.953 0 00-.945.885L1.007 31.283a.357.357 0 01-.003.043.355.355 0 00-.004.044c0 2.583 2.32 4.685 5.176 4.685h17.249c2.856 0 5.176-2.102 5.176-4.685 0-.03 0-.058-.007-.087zM14.8 2.803c2.673 0 4.852 2.188 4.909 4.901H9.892c.057-2.713 2.236-4.902 4.909-4.902zM6.176 34.111h17.249c1.784 0 3.244-1.21 3.272-2.7L24.8 9.656h-3.187v2.95c0 .54-.424.972-.952.972a.958.958 0 01-.952-.972v-2.95H9.885v2.95c0 .54-.423.972-.952.972a.958.958 0 01-.952-.972v-2.95H4.794l-1.89 21.758c.028 1.49 1.481 2.699 3.272 2.699z" fill="#333"/><path d="M26.62 8.59l-.15.012.15-.013zm1.974 22.693l-.15.013.001.012.003.01.146-.035zM21.612 7.704l-.15.002.003.148h.148v-.15zm-13.624 0v.15h.148l.002-.148-.15-.002zm-5.006.885l.149.013-.15-.013zM1.007 31.283l-.15-.013v.013h.15zm-.003.043l-.15-.018.15.018zM19.709 7.704v.15h.153l-.003-.153-.15.003zm-9.817 0l-.15-.003-.003.153h.153v-.15zm16.805 23.709l.15.003V31.4l-.15.013zM24.8 9.655l.15-.013-.012-.137H24.8v.15zm-3.187 0v-.15h-.15v.15h.15zm-1.904 0h.15v-.15h-.15v.15zm-9.824 0v-.15h-.15v.15h.15zm-1.904 0h.15v-.15h-.15v.15zm-3.187 0v-.15h-.137l-.012.137.15.013zm-1.89 21.758l-.15-.013v.016l.15-.003zM26.47 8.603l1.974 22.693.3-.026-1.975-22.694-.3.026zm-.796-.749c.407 0 .76.32.796.748l.299-.025a1.108 1.108 0 00-1.095-1.023v.3zm-4.061 0h4.061v-.3h-4.061v.3zM14.8 1.01c3.639 0 6.607 2.99 6.662 6.697l.3-.004C21.706 3.837 18.61.709 14.8.709v.3zM8.138 7.706C8.194 4 11.162 1.01 14.8 1.01v-.3c-3.808 0-6.904 3.128-6.962 6.993l.3.004zm-4.211.148h4.061v-.3H3.927v.3zm-.796.748a.803.803 0 01.796-.748v-.3c-.574 0-1.046.444-1.095 1.023l.299.025zM1.156 31.296L3.131 8.602l-.299-.026L.858 31.27l.298.026zm-.004.049a.428.428 0 00.005-.062h-.3l-.002.025.297.037zm-.002.025l.002-.025-.297-.037a.428.428 0 00-.005.062h.3zm5.026 4.535c-2.787 0-5.026-2.048-5.026-4.535h-.3c0 2.68 2.402 4.835 5.326 4.835v-.3zm17.249 0H6.176v.3h17.249v-.3zm5.026-4.535c0 2.487-2.239 4.535-5.026 4.535v.3c2.924 0 5.326-2.155 5.326-4.835h-.3zm-.003-.051c.002.008.003.02.003.05h.3c0-.026 0-.072-.012-.121l-.29.07zM19.858 7.7c-.058-2.792-2.3-5.049-5.058-5.049v.3c2.589 0 4.704 2.12 4.759 4.755l.3-.006zm-9.966.153h9.817v-.3H9.892v.3zm4.909-5.202c-2.758 0-5 2.257-5.059 5.049l.3.006c.055-2.635 2.17-4.755 4.758-4.755v-.3zm8.624 31.31H6.176v.3h17.249v-.3zm3.122-2.552c-.026 1.385-1.395 2.552-3.122 2.552v.3c1.84 0 3.392-1.252 3.422-2.846l-.3-.006zM24.651 9.668l1.897 21.758.299-.026-1.898-21.758-.298.026zm-3.038.137H24.8v-.3h-3.187v.3zm.15 2.8v-2.95h-.3v2.95h.3zm-1.102 1.122c.614 0 1.102-.502 1.102-1.122h-.3c0 .46-.36.822-.802.822v.3zm-1.102-1.122c0 .62.487 1.122 1.102 1.122v-.3a.808.808 0 01-.802-.822h-.3zm0-2.95v2.95h.3v-2.95h-.3zm-9.674.15h9.824v-.3H9.885v.3zm.15 2.8v-2.95h-.3v2.95h.3zm-1.102 1.122c.615 0 1.103-.502 1.103-1.122h-.3a.81.81 0 01-.803.822v.3zm-1.102-1.122c0 .62.488 1.122 1.102 1.122v-.3a.808.808 0 01-.802-.822h-.3zm0-2.95v2.95h.3v-2.95h-.3zm-3.037.15h3.187v-.3H4.794v.3zm-1.74 21.62l1.89-21.757-.3-.026L2.755 31.4l.3.026zm3.122 2.537c-1.734 0-3.096-1.167-3.122-2.552l-.3.006c.03 1.594 1.574 2.846 3.422 2.846v-.3z" fill="#333"/></svg>
